icons/op-changeset-down-24.svg

<svg width="24" height="24" viewBox="0 0 24 24" fill="none" xmlns="http://www.w3.org/2000/svg">
<path d="M16 9.33333H14V4H10V9.33333H8L12 13.6L16 9.33333ZM17.875 8.26667H16V9.33333H17.2188L18.5 12.5333H15C15 14.3 13.6562 15.7333 12 15.7333C10.3438 15.7333 9 14.3 9 12.5333H5.5L6.78125 9.33333H8V8.26667H6.125L4 13.6V20H20V13.6L17.875 8.26667Z" fill="black"/>
</svg>

<svg xmlns="http://www.w3.org/2000/svg" width="24" height="24" viewBox="0 0 24 24"><path d="M16 9.333h-2V4h-4v5.333H8l4 4.267 4-4.267Zm1.875-1.066H16v1.066h1.219l1.281 3.2H15c0 1.767-1.344 3.2-3 3.2s-3-1.433-3-3.2H5.5l1.281-3.2H8V8.267H6.125L4 13.6V20h16v-6.4l-2.125-5.333Z"/></svg>
